symbols/craft/tailor.svg

<?xml version="1.0" encoding="UTF-8" standalone="no"?>
<svg
   xmlns:dc="http://purl.org/dc/elements/1.1/"
   xmlns:cc="http://creativecommons.org/ns#"
   xmlns:rdf="http://www.w3.org/1999/02/22-rdf-syntax-ns#"
   xmlns:svg="http://www.w3.org/2000/svg"
   xmlns="http://www.w3.org/2000/svg"
   viewBox="0 0 14 14"
   height="14"
   width="14"
   id="craft_tailor"
   version="1.1">
  <metadata
     id="metadata115">
    <rdf:RDF>
      <cc:Work
         rdf:about="">
        <dc:format>image/svg+xml</dc:format>
        <dc:type
           rdf:resource="http://purl.org/dc/dcmitype/StillImage" />
        <dc:title></dc:title>
      </cc:Work>
    </rdf:RDF>
  </metadata>
  <defs
     id="defs113" />
  <path
     id="rect4506"
     d="m 10.356446,2.1308592 v 0.025391 C 8.1667497,3.5508508 5.9758282,3.5022829 3.7861328,2.1718748 v -0.019531 h -0.035156 c -0.00589,-0.00362 -0.011685,-0.00613 -0.017578,-0.00977 v 0.00977 H 0.73535156 v 4.472656 H 1.7548828 V 9.1855467 H 2.8095704 V 6.6249998 H 3.772461 v 0.041016 C 5.1209172,5.5528121 6.7173267,5.3886386 8.1259766,6.6425779 V 10.564453 H -9.765625e-4 v 1.304688 H 13.999024 V 10.564453 H 12.088868 V 2.1308592 Z m 2.589843,0.6953125 v 4.0898437 h 1.054688 V 2.8261717 Z"
     style="opacity:1;fill:#000000;fill-opacity:1;fill-rule:evenodd;stroke:none;stroke-width:0.66444176;stroke-linecap:square;stroke-linejoin:round;stroke-miterlimit:4;stroke-dasharray:none;stroke-opacity:1;paint-order:markers stroke fill" />
</svg>

<?xml version="1.0" encoding="UTF-8"?>
<svg id="craft_tailor" width="14" height="14" version="1.1" viewBox="0 0 14 14" xmlns="http://www.w3.org/2000/svg">
 <path d="m10.356 2.1309v0.025391c-2.1897 1.3946-4.3806 1.346-6.5703 0.015625v-0.019531h-0.035156c-0.00589-0.00362-0.011685-0.00613-0.017578-0.00977v0.00977h-2.998v4.4727h1.0195v2.5605h1.0547v-2.5605h0.96289v0.041016c1.3485-1.1132 2.9449-1.2774 4.3535-0.023438v3.9219h-8.127v1.3047h14v-1.3047h-1.9102v-8.4336zm2.5898 0.69531v4.0898h1.0547v-4.0898z" fill-rule="evenodd"/>
</svg>
